images/icons/youtube.svg

<?xml version="1.0" encoding="UTF-8"?>
<!DOCTYPE svg PUBLIC "-//W3C//DTD SVG 1.1//EN" "http://www.w3.org/Graphics/SVG/1.1/DTD/svg11.dtd">
<svg xmlns="http://www.w3.org/2000/svg" version="1.1" width="256px" height="256px" style="shape-rendering:geometricPrecision; text-rendering:geometricPrecision; image-rendering:optimizeQuality; fill-rule:evenodd; clip-rule:evenodd" xmlns:xlink="http://www.w3.org/1999/xlink">
<g><path style="opacity:1" fill="#c93332" d="M 31.5,-0.5 C 95.5,-0.5 159.5,-0.5 223.5,-0.5C 223.5,4.83333 223.5,10.1667 223.5,15.5C 159.5,15.5 95.5,15.5 31.5,15.5C 31.5,10.1667 31.5,4.83333 31.5,-0.5 Z"/></g>
<g><path style="opacity:1" fill="#c93332" d="M 31.5,15.5 C 31.5,20.8333 31.5,26.1667 31.5,31.5C 26.1667,31.5 20.8333,31.5 15.5,31.5C 15.5,26.1667 15.5,20.8333 15.5,15.5C 20.8333,15.5 26.1667,15.5 31.5,15.5 Z"/></g>
<g><path style="opacity:1" fill="#dc3c3b" d="M 31.5,15.5 C 95.5,15.5 159.5,15.5 223.5,15.5C 223.5,20.8333 223.5,26.1667 223.5,31.5C 228.833,31.5 234.167,31.5 239.5,31.5C 239.5,95.5 239.5,159.5 239.5,223.5C 234.167,223.5 228.833,223.5 223.5,223.5C 223.5,228.833 223.5,234.167 223.5,239.5C 159.5,239.5 95.5,239.5 31.5,239.5C 31.5,234.167 31.5,228.833 31.5,223.5C 26.1667,223.5 20.8333,223.5 15.5,223.5C 15.5,159.5 15.5,95.5 15.5,31.5C 20.8333,31.5 26.1667,31.5 31.5,31.5C 31.5,26.1667 31.5,20.8333 31.5,15.5 Z"/></g>
<g><path style="opacity:1" fill="#c93332" d="M 223.5,15.5 C 228.833,15.5 234.167,15.5 239.5,15.5C 239.5,20.8333 239.5,26.1667 239.5,31.5C 239.5,26.1667 239.5,20.8333 239.5,15.5C 234.167,15.5 228.833,15.5 223.5,15.5 Z"/></g>
<g><path style="opacity:1" fill="#c93332" d="M -0.5,31.5 C 4.83333,31.5 10.1667,31.5 15.5,31.5C 15.5,95.5 15.5,159.5 15.5,223.5C 10.1667,223.5 4.83333,223.5 -0.5,223.5C -0.5,159.5 -0.5,95.5 -0.5,31.5 Z"/></g>
<g><path style="opacity:1" fill="#e16564" d="M 207.5,47.5 C 196.833,47.5 186.167,47.5 175.5,47.5C 175.5,42.1667 175.5,36.8333 175.5,31.5C 186.167,31.5 196.833,31.5 207.5,31.5C 207.5,36.8333 207.5,42.1667 207.5,47.5 Z"/></g>
<g><path style="opacity:1" fill="#c93332" d="M 239.5,31.5 C 244.833,31.5 250.167,31.5 255.5,31.5C 255.5,95.5 255.5,159.5 255.5,223.5C 250.167,223.5 244.833,223.5 239.5,223.5C 239.5,159.5 239.5,95.5 239.5,31.5 Z"/></g>
<g><path style="opacity:1" fill="#c1c2d0" d="M 95.5,63.5 C 84.8333,63.5 74.1667,63.5 63.5,63.5C 63.5,58.1667 63.5,52.8333 63.5,47.5C 74.1667,47.5 84.8333,47.5 95.5,47.5C 95.5,52.8333 95.5,58.1667 95.5,63.5 Z"/></g>
<g><path style="opacity:1" fill="#e16564" d="M 207.5,47.5 C 212.833,47.5 218.167,47.5 223.5,47.5C 223.5,58.1667 223.5,68.8333 223.5,79.5C 218.167,79.5 212.833,79.5 207.5,79.5C 207.5,68.8333 207.5,58.1667 207.5,47.5 Z"/></g>
<g><path style="opacity:1" fill="#e0e1e0" d="M 63.5,63.5 C 74.1667,63.5 84.8333,63.5 95.5,63.5C 95.5,68.8333 95.5,74.1667 95.5,79.5C 106.167,79.5 116.833,79.5 127.5,79.5C 127.5,84.8333 127.5,90.1667 127.5,95.5C 138.167,95.5 148.833,95.5 159.5,95.5C 159.5,100.833 159.5,106.167 159.5,111.5C 170.167,111.5 180.833,111.5 191.5,111.5C 191.5,116.833 191.5,122.167 191.5,127.5C 191.5,132.833 191.5,138.167 191.5,143.5C 180.833,143.5 170.167,143.5 159.5,143.5C 159.5,148.833 159.5,154.167 159.5,159.5C 148.833,159.5 138.167,159.5 127.5,159.5C 127.5,164.833 127.5,170.167 127.5,175.5C 116.833,175.5 106.167,175.5 95.5,175.5C 95.5,180.833 95.5,186.167 95.5,191.5C 84.8333,191.5 74.1667,191.5 63.5,191.5C 63.5,148.833 63.5,106.167 63.5,63.5 Z"/></g>
<g><path style="opacity:1" fill="#c1c2d0" d="M 95.5,63.5 C 106.167,63.5 116.833,63.5 127.5,63.5C 127.5,68.8333 127.5,74.1667 127.5,79.5C 116.833,79.5 106.167,79.5 95.5,79.5C 95.5,74.1667 95.5,68.8333 95.5,63.5 Z"/></g>
<g><path style="opacity:1" fill="#c1c2d0" d="M 127.5,79.5 C 138.167,79.5 148.833,79.5 159.5,79.5C 159.5,84.8333 159.5,90.1667 159.5,95.5C 148.833,95.5 138.167,95.5 127.5,95.5C 127.5,90.1667 127.5,84.8333 127.5,79.5 Z"/></g>
<g><path style="opacity:1" fill="#c1c2d0" d="M 159.5,95.5 C 170.167,95.5 180.833,95.5 191.5,95.5C 191.5,100.833 191.5,106.167 191.5,111.5C 180.833,111.5 170.167,111.5 159.5,111.5C 159.5,106.167 159.5,100.833 159.5,95.5 Z"/></g>
<g><path style="opacity:1" fill="#c1c2d0" d="M 191.5,111.5 C 196.833,111.5 202.167,111.5 207.5,111.5C 207.5,116.833 207.5,122.167 207.5,127.5C 202.167,127.5 196.833,127.5 191.5,127.5C 191.5,122.167 191.5,116.833 191.5,111.5 Z"/></g>
<g><path style="opacity:1" fill="#e16564" d="M 47.5,207.5 C 42.1667,207.5 36.8333,207.5 31.5,207.5C 31.5,196.833 31.5,186.167 31.5,175.5C 36.8333,175.5 42.1667,175.5 47.5,175.5C 47.5,186.167 47.5,196.833 47.5,207.5 Z"/></g>
<g><path style="opacity:1" fill="#e16564" d="M 47.5,207.5 C 58.1667,207.5 68.8333,207.5 79.5,207.5C 79.5,212.833 79.5,218.167 79.5,223.5C 68.8333,223.5 58.1667,223.5 47.5,223.5C 47.5,218.167 47.5,212.833 47.5,207.5 Z"/></g>
<g><path style="opacity:1" fill="#c93332" d="M 15.5,223.5 C 20.8333,223.5 26.1667,223.5 31.5,223.5C 31.5,228.833 31.5,234.167 31.5,239.5C 26.1667,239.5 20.8333,239.5 15.5,239.5C 15.5,234.167 15.5,228.833 15.5,223.5 Z"/></g>
<g><path style="opacity:1" fill="#c93332" d="M 239.5,223.5 C 239.5,228.833 239.5,234.167 239.5,239.5C 234.167,239.5 228.833,239.5 223.5,239.5C 223.5,234.167 223.5,228.833 223.5,223.5C 228.833,223.5 234.167,223.5 239.5,223.5 Z"/></g>
<g><path style="opacity:1" fill="#c93332" d="M 31.5,239.5 C 95.5,239.5 159.5,239.5 223.5,239.5C 223.5,244.833 223.5,250.167 223.5,255.5C 159.5,255.5 95.5,255.5 31.5,255.5C 31.5,250.167 31.5,244.833 31.5,239.5 Z"/></g>
</svg>

<svg xmlns="http://www.w3.org/2000/svg" width="256" height="256" style="shape-rendering:geometricPrecision;text-rendering:geometricPrecision;image-rendering:optimizeQuality;fill-rule:evenodd;clip-rule:evenodd"><path style="opacity:1" fill="#c93332" d="M31.5-.5h192v16h-192v-16zM31.5 15.5v16h-16v-16h16z"/><path style="opacity:1" fill="#dc3c3b" d="M31.5 15.5h192v16h16v192h-16v16h-192v-16h-16v-192h16v-16z"/><path style="opacity:1" fill="#c93332" d="M223.5 15.5h16v16-16h-16zM-.5 31.5h16v192h-16v-192z"/><path style="opacity:1" fill="#e16564" d="M207.5 47.5h-32v-16h32v16z"/><path style="opacity:1" fill="#c93332" d="M239.5 31.5h16v192h-16v-192z"/><path style="opacity:1" fill="#c1c2d0" d="M95.5 63.5h-32v-16h32v16z"/><path style="opacity:1" fill="#e16564" d="M207.5 47.5h16v32h-16v-32z"/><path style="opacity:1" fill="#e0e1e0" d="M63.5 63.5h32v16h32v16h32v16h32v32h-32v16h-32v16h-32v16h-32v-128z"/><path style="opacity:1" fill="#c1c2d0" d="M95.5 63.5h32v16h-32v-16zM127.5 79.5h32v16h-32v-16zM159.5 95.5h32v16h-32v-16zM191.5 111.5h16v16h-16v-16z"/><path style="opacity:1" fill="#e16564" d="M47.5 207.5h-16v-32h16v32zM47.5 207.5h32v16h-32v-16z"/><path style="opacity:1" fill="#c93332" d="M15.5 223.5h16v16h-16v-16zM239.5 223.5v16h-16v-16h16zM31.5 239.5h192v16h-192v-16z"/></svg>
